!! 00000] TT[WS
!!!OTL: Hai tai
!!!ARE: Asia, China, Shanxi Shuoxian
!! Ethnic Group: Han
!! WII, 161 (3)
!!!SCT: J0644
!!!YEM: Copyright 1995, estate of Helmut Schaffrath.
**kern
*ICvox
*Ivox
*M2/4
*k[b-]
*F:
{8dd
8dd
8dd
16a
16cc
=1
2dd
=2
8dd
8ff
16ff
16dd
16cc
16a
=3
8.g
16a
4f}
=4
{8.cc
16a
8dd
8a
=5
8g
8a
4d
=6
8f
16f
16g
8a
16g
16f
=7
2d}
==
!!!AGN: Xiaodiao. Aisu
!!!ONB: ESAC (Essen Associative Code) Database: CHINA
!!!AMT: simple duple
!!!AIN: vox
!!!EED: Helmut Schaffrath
!!!EEV: 1.0
*-
